Numix-Light/16/status/indicator-keyboard-Ru-5.svg

<?xml version="1.0" encoding="UTF-8" standalone="no"?>
<svg
   xmlns:dc="http://purl.org/dc/elements/1.1/"
   xmlns:cc="http://creativecommons.org/ns#"
   xmlns:rdf="http://www.w3.org/1999/02/22-rdf-syntax-ns#"
   xmlns:svg="http://www.w3.org/2000/svg"
   xmlns="http://www.w3.org/2000/svg"
   xmlns:sodipodi="http://sodipodi.sourceforge.net/DTD/sodipodi-0.dtd"
   xmlns:inkscape="http://www.inkscape.org/namespaces/inkscape"
   viewBox="0 0 16 16"
   id="svg2"
   version="1.1"
   inkscape:version="0.91 r13725"
   sodipodi:docname="indicator-keyboard-Ru-5.svg">
  <metadata
     id="metadata14">
    <rdf:RDF>
      <cc:Work
         rdf:about="">
        <dc:format>image/svg+xml</dc:format>
        <dc:type
           rdf:resource="http://purl.org/dc/dcmitype/StillImage" />
      </cc:Work>
    </rdf:RDF>
  </metadata>
  <defs
     id="defs12" />
  <sodipodi:namedview
     pagecolor="#ffffff"
     bordercolor="#666666"
     borderopacity="1"
     objecttolerance="10"
     gridtolerance="10"
     guidetolerance="10"
     inkscape:pageopacity="0"
     inkscape:pageshadow="2"
     inkscape:window-width="459"
     inkscape:window-height="369"
     id="namedview10"
     showgrid="false"
     inkscape:zoom="14.75"
     inkscape:cx="8"
     inkscape:cy="8"
     inkscape:window-x="65"
     inkscape:window-y="24"
     inkscape:window-maximized="0"
     inkscape:current-layer="svg2" />
  <path
     style="fill:#353535;fill-opacity:1"
     d="M 1.5996094 0 C 0.71320937 2.9605947e-16 0 0.71320937 0 1.5996094 L 0 14.400391 C 2.9605947e-16 15.286791 0.71320937 16 1.5996094 16 L 14.400391 16 C 15.286791 16 16 15.286791 16 14.400391 L 16 1.5996094 C 16 0.71320937 15.286791 0 14.400391 0 L 1.5996094 0 z M 3.2226562 4.8046875 C 4.0806562 4.8046875 4.7262031 4.9670156 5.1582031 5.2910156 C 5.5962031 5.6150156 5.8144531 6.0944688 5.8144531 6.7304688 C 5.8144531 7.1984687 5.6913125 7.5678906 5.4453125 7.8378906 C 5.1993125 8.1078906 4.8766094 8.3038281 4.4746094 8.4238281 C 4.5706094 8.5438281 4.69375 8.7042031 4.84375 8.9082031 C 4.99975 9.1122031 5.1583125 9.3379844 5.3203125 9.5839844 C 5.4823125 9.8239844 5.640875 10.075844 5.796875 10.339844 C 5.952875 10.603844 6.0853594 10.855703 6.1933594 11.095703 L 5.5371094 11.095703 C 5.4111094 10.855703 5.2730469 10.616953 5.1230469 10.376953 C 4.9790469 10.136953 4.827875 9.9055939 4.671875 9.6835938 C 4.521875 9.4555937 4.3744688 9.2447344 4.2304688 9.0527344 L 3.8535156 8.5488281 C 3.6615156 8.5668281 3.4693438 8.5761719 3.2773438 8.5761719 L 2.2695312 8.5761719 L 2.2695312 11.095703 L 1.6582031 11.095703 L 1.6582031 4.9765625 C 1.8742031 4.9165625 2.1260625 4.8736094 2.4140625 4.8496094 C 2.7080625 4.8196094 2.9766563 4.8046875 3.2226562 4.8046875 z M 3.2949219 5.3359375 C 3.0669219 5.3359375 2.8654062 5.3452813 2.6914062 5.3632812 C 2.5234063 5.3752812 2.3835312 5.3864375 2.2695312 5.3984375 L 2.2695312 8.0546875 L 3.1152344 8.0546875 C 3.3972344 8.0546875 3.6640156 8.0415781 3.9160156 8.0175781 C 4.1680156 7.9875781 4.3882188 7.9278906 4.5742188 7.8378906 C 4.7602187 7.7418906 4.9056719 7.6075938 5.0136719 7.4335938 C 5.1216719 7.2595938 5.1757813 7.0226562 5.1757812 6.7226562 C 5.1757812 6.4466563 5.1216719 6.2171094 5.0136719 6.0371094 C 4.9056719 5.8571094 4.7657969 5.7172344 4.5917969 5.6152344 C 4.4177969 5.5072344 4.2162812 5.4344375 3.9882812 5.3984375 C 3.7662812 5.3564375 3.5349219 5.3359375 3.2949219 5.3359375 z M 7.1210938 6.4433594 L 7.7070312 6.4433594 L 7.7070312 8.8632812 C 7.7070312 9.1932813 7.7312969 9.4731719 7.7792969 9.7011719 C 7.8272969 9.9291721 7.9056719 10.115766 8.0136719 10.259766 C 8.1216719 10.397766 8.2597344 10.498453 8.4277344 10.564453 C 8.6017344 10.624453 8.8106406 10.654297 9.0566406 10.654297 C 9.3326406 10.654297 9.5733438 10.639375 9.7773438 10.609375 C 9.9813438 10.579375 10.110063 10.553297 10.164062 10.529297 L 10.164062 6.4433594 L 10.748047 6.4433594 L 10.748047 10.933594 C 10.574047 10.981594 10.340875 11.035703 10.046875 11.095703 C 9.7528749 11.155703 9.3927969 11.185547 8.9667969 11.185547 C 8.6187969 11.185547 8.32775 11.135203 8.09375 11.033203 C 7.85975 10.931203 7.6713438 10.787563 7.5273438 10.601562 C 7.3833437 10.415563 7.2788906 10.189781 7.2128906 9.9257812 C 7.1528906 9.6617812 7.1210938 9.3707344 7.1210938 9.0527344 L 7.1210938 6.4433594 z M 12.376953 8.8417969 L 14.203125 8.8417969 L 14.203125 9.1757812 L 12.710938 9.1757812 C 12.707071 9.2498812 12.701193 9.3458906 12.693359 9.4628906 C 12.685559 9.5798906 12.677722 9.6994188 12.669922 9.8242188 C 12.662122 9.9451188 12.652325 10.062681 12.640625 10.175781 C 12.628925 10.288881 12.619128 10.379012 12.611328 10.445312 C 12.911628 10.453112 13.170272 10.490341 13.388672 10.556641 C 13.607072 10.622941 13.787334 10.711119 13.927734 10.824219 C 14.068134 10.937319 14.171981 11.074475 14.238281 11.234375 C 14.308481 11.394275 14.341797 11.572578 14.341797 11.767578 C 14.341797 11.939178 14.314359 12.097894 14.255859 12.246094 C 14.201259 12.394294 14.115047 12.523613 13.998047 12.632812 C 13.881047 12.742012 13.732134 12.828225 13.552734 12.890625 C 13.373334 12.953025 13.161716 12.984375 12.916016 12.984375 C 12.791216 12.984375 12.673653 12.974578 12.564453 12.955078 C 12.459153 12.939478 12.363144 12.919884 12.277344 12.896484 C 12.195444 12.873084 12.124906 12.849572 12.066406 12.826172 C 12.007906 12.802772 11.9648 12.783178 11.9375 12.767578 L 12.037109 12.427734 C 12.060509 12.443334 12.099697 12.462928 12.154297 12.486328 C 12.212797 12.509728 12.279416 12.533241 12.353516 12.556641 C 12.431516 12.576141 12.517728 12.593775 12.611328 12.609375 C 12.708828 12.624975 12.810716 12.632812 12.916016 12.632812 C 13.111016 12.632812 13.271691 12.611259 13.400391 12.568359 C 13.532991 12.521559 13.638797 12.458859 13.716797 12.380859 C 13.794797 12.302859 13.849659 12.212728 13.880859 12.111328 C 13.915959 12.006028 13.933594 11.894337 13.933594 11.773438 C 13.933594 11.617437 13.908122 11.476362 13.857422 11.351562 C 13.806722 11.226762 13.716591 11.120956 13.587891 11.035156 C 13.459191 10.949356 13.286759 10.884697 13.068359 10.841797 C 12.849959 10.794997 12.571728 10.771484 12.236328 10.771484 C 12.259728 10.572584 12.279322 10.392316 12.294922 10.228516 C 12.310522 10.060816 12.324238 9.9001469 12.335938 9.7480469 C 12.347638 9.5920469 12.355475 9.4431281 12.359375 9.2988281 C 12.367175 9.1506281 12.373053 8.9977969 12.376953 8.8417969 z "
     id="path4" />
</svg>

<svg xmlns="http://www.w3.org/2000/svg" viewBox="0 0 16 16">
 <path d="m 1.6 0 c -0.886 0 -1.6 0.713 -1.6 1.6 l 0 12.801 c 0 0.886 0.713 1.6 1.6 1.6 l 12.801 0 c 0.886 0 1.6 -0.713 1.6 -1.6 l 0 -12.801 c 0 -0.886 -0.713 -1.6 -1.6 -1.6 l -12.801 0 z m 1.623 4.805 c 0.858 0 1.504 0.162 1.936 0.486 c 0.438 0.324 0.656 0.803 0.656 1.439 c 0 0.468 -0.123 0.837 -0.369 1.107 c -0.246 0.27 -0.569 0.466 -0.971 0.586 c 0.096 0.12 0.219 0.28 0.369 0.484 c 0.156 0.204 0.315 0.43 0.477 0.676 c 0.162 0.24 0.321 0.492 0.477 0.756 c 0.156 0.264 0.288 0.516 0.396 0.756 l -0.656 0 c -0.126 -0.24 -0.264 -0.479 -0.414 -0.719 c -0.144 -0.24 -0.295 -0.471 -0.451 -0.693 c -0.15 -0.228 -0.297 -0.439 -0.441 -0.631 l -0.377 -0.504 c -0.192 0.018 -0.384 0.027 -0.576 0.027 l -1.01 0 l 0 2.52 l -0.611 0 l 0 -6.119 c 0.216 -0.06 0.468 -0.103 0.756 -0.127 c 0.294 -0.03 0.563 -0.045 0.809 -0.045 z m 0.072 0.531 c -0.228 0 -0.43 0.009 -0.604 0.027 c -0.168 0.012 -0.308 0.023 -0.422 0.035 l 0 2.656 l 0.846 0 c 0.282 0 0.549 -0.013 0.801 -0.037 c 0.252 -0.03 0.472 -0.09 0.658 -0.18 c 0.186 -0.096 0.331 -0.23 0.439 -0.404 c 0.108 -0.174 0.162 -0.411 0.162 -0.711 c 0 -0.276 -0.054 -0.506 -0.162 -0.686 c -0.108 -0.18 -0.248 -0.32 -0.422 -0.422 c -0.174 -0.108 -0.376 -0.181 -0.604 -0.217 c -0.222 -0.042 -0.453 -0.063 -0.693 -0.063 z m 3.826 1.107 l 0.586 0 l 0 2.42 c 0 0.33 0.024 0.61 0.072 0.838 c 0.048 0.228 0.126 0.415 0.234 0.559 c 0.108 0.138 0.246 0.239 0.414 0.305 c 0.174 0.06 0.383 0.09 0.629 0.09 c 0.276 0 0.517 -0.015 0.721 -0.045 c 0.204 -0.03 0.333 -0.056 0.387 -0.08 l 0 -4.086 l 0.584 0 l 0 4.49 c -0.174 0.048 -0.407 0.102 -0.701 0.162 c -0.294 0.06 -0.654 0.09 -1.08 0.09 c -0.348 0 -0.639 -0.05 -0.873 -0.152 c -0.234 -0.102 -0.422 -0.246 -0.566 -0.432 c -0.144 -0.186 -0.248 -0.412 -0.314 -0.676 c -0.06 -0.264 -0.092 -0.555 -0.092 -0.873 l 0 -2.609 z m 5.256 2.398 l 1.826 0 l 0 0.334 l -1.492 0 c -0.004 0.074 -0.01 0.17 -0.018 0.287 c -0.008 0.117 -0.016 0.237 -0.023 0.361 c -0.008 0.121 -0.018 0.238 -0.029 0.352 c -0.012 0.113 -0.021 0.203 -0.029 0.27 c 0.3 0.008 0.559 0.045 0.777 0.111 c 0.218 0.066 0.399 0.154 0.539 0.268 c 0.14 0.113 0.244 0.25 0.311 0.41 c 0.07 0.16 0.104 0.338 0.104 0.533 c 0 0.172 -0.027 0.33 -0.086 0.479 c -0.055 0.148 -0.141 0.278 -0.258 0.387 c -0.117 0.109 -0.266 0.195 -0.445 0.258 c -0.179 0.062 -0.391 0.094 -0.637 0.094 c -0.125 0 -0.242 -0.01 -0.352 -0.029 c -0.105 -0.016 -0.201 -0.035 -0.287 -0.059 c -0.082 -0.023 -0.152 -0.047 -0.211 -0.07 c -0.059 -0.023 -0.102 -0.043 -0.129 -0.059 l 0.1 -0.34 c 0.023 0.016 0.063 0.035 0.117 0.059 c 0.059 0.023 0.125 0.047 0.199 0.07 c 0.078 0.019 0.164 0.037 0.258 0.053 c 0.098 0.016 0.199 0.023 0.305 0.023 c 0.195 0 0.356 -0.022 0.484 -0.064 c 0.133 -0.047 0.238 -0.109 0.316 -0.188 c 0.078 -0.078 0.133 -0.168 0.164 -0.27 c 0.035 -0.105 0.053 -0.217 0.053 -0.338 c 0 -0.156 -0.025 -0.297 -0.076 -0.422 c -0.051 -0.125 -0.141 -0.231 -0.27 -0.316 c -0.129 -0.086 -0.301 -0.15 -0.52 -0.193 c -0.218 -0.047 -0.497 -0.07 -0.832 -0.07 c 0.023 -0.199 0.043 -0.379 0.059 -0.543 c 0.016 -0.168 0.029 -0.328 0.041 -0.48 c 0.012 -0.156 0.02 -0.305 0.023 -0.449 c 0.008 -0.148 0.014 -0.301 0.018 -0.457 z" style="fill:#353535;fill-opacity:1"/>
</svg>
